!!!COM: Scriabin, Alexander
!!!OTL@@FR: Étude
!!!OTL@@EN: Etude
!!!OPR@@FR: 3 Études
!!!OPR@@EN: 3 Etudes
!!!OPS: 65
!!!ONM: 1
!!!ODT: 1912
!!!AGN: Etude
**kern	**kern	**dynam
*staff2	*staff1	*staff1/2
*Ipiano	*Ipiano	*
*clefF4	*clefG2	*
*k[]	*k[]	*
*X:	*X:	*
*M12/16	*M12/16	*
=1	=1	=1
8.EL 8.B-X 8.d	16g-XLL 16aa-X	.
.	16gn 16aan	.
.	16a-X 16bb-X	.
8.C#XJ 8.F##X 8.e#X	16an 16bbn	.
.	16a#X 16bb#X	.
.	16bnJJ 16ccc#X	.
8.AA#X 8.E 8.d 8.g#X	16ccLL 16ddd	.
.	16cc#X 16ddd#X	.
.	16ddn 16eee	.
16.BnLL 16.fn 16.bn	16ee-X 16fff	.
.	16een 16fff#X	.
16.GGnJJ 16.C#X	.	.
.	16ffnJJ 16ggg	.
=2	=2	=2
64%3EELL	16gg-XLL 16aaa-X	.
64%3BB-X	.	.
.	16gg- 16aaa-	.
64%3A-X	.	.
.	16gg- 16aaa-	.
64%3dJ	.	.
[8.ccnJ	16gg- 16aaa-	.
.	16gg- 16aaa-	.
.	16gg-JJ 16aaa-	.
8.ccL]	16gg-LL 16aaa-	.
.	16gg- 16aaa-	.
.	16gg- 16aaa-	.
8.ccJ	16gg- 16aaa-	.
.	16gg- 16aaa-	.
.	16gg-JJ 16aaa-	.
=3	=3	=3
*M6/16	*M6/16	*
*^	*	*
16gLL	8A-XL 8d	16r	.
16g-XJJ	.	16gg-XLL 16aaa-X	.
16rEE	16BB-XJk	16gg- 16aaa-	.
16rEE	16rc	16cc 16ddd	.
16g-LL	[8A- [8d	16cc 16ddd	.
16fJJ	.	16cc-XJJ 16ddd-X	.
=4	=4	=4	=4
8.g-XL	8.A-L] 8.d]	16ccnLL 16dddn	.
.	.	16cc-X 16ddd-X	.
.	.	16b-X 16ccc	.
8.fJ	8.D-XJ 8.Gn	16b-- 16ccc-X	.
.	.	16b-X 16cccn	.
.	.	16cc-XJJ 16ddd-X	.
=5	=5	=5	=5
16gnLL	8A-XL 8d	16r	.
16g-XJJ	.	16gg-XLL 16aaa-X	.
16rEE	16BB-XJk	16gg- 16aaa-	.
16rEE	16rc	16cc 16ddd	.
16g-LL	[8A- [8d	16cc 16ddd	.
16fJJ	.	16cc-XJJ 16ddd-X	.
=6	=6	=6	=6
8.g-XL	8.A-L] 8.d]	16ccnLL 16dddn	.
.	.	16cc-X 16ddd-X	.
.	.	16b-XJ 16ccc	.
8.fJ	8.C#XJ 8.Bn	8.aJ 8.bb	.
=7	=7	=7	=7
16eLL	8FL 8B	16r	.
16e-XJJ	.	16ee-XLL 16fff	.
16rEE	16GGJk	16ee- 16fff	.
16rEE	16rc	16a 16bb	.
16e-LL	[8F [8B	16a 16bb	.
16dJJ	.	16a-XJJ 16bb-X	.
=8	=8	=8	=8
8.e-XL	8.FL] 8.B]	16anLL 16bbn	.
.	.	16a-X 16bb-X	.
.	.	16gJ 16aa	.
8.dJ	8.BB-XJ 8.En	8.g-XJ 8.aa-X	.
*v	*v	*	*
=9	=9	=9
8.BB-XL 8.E 8.d	16g-XLL 16aa-X	.
.	16gn 16aan	.
.	16a-X 16bb-X	.
8.GGJ 8.D-X 8.c-X 8.f	16b-- 16ccc-X	.
.	16b-X 16cccn	.
.	16cc-XJJ 16ddd-X	.
=10	=10	=10
16.GLL 16.A-X 16.d 16.g	16ccnLL 16dddn	.
.	16cc 16ddd	.
16.EEJJ 16.D	.	.
.	16cc 16ddd	.
8.r	16cc 16ddd	.
.	16cc 16ddd	.
.	16ccJJ 16ddd	.
=11	=11	=11
*^	*	*
16gLL	8A-XL 8d	16r	.
16g-XJJ	.	16gg-XLL 16aaa-X	.
16rEE	16BB-XJk	16gg- 16aaa-	.
16rEE	16rc	16cc 16ddd	.
16g-LL	[8A- [8d	16cc 16ddd	.
16fJJ	.	16cc-XJJ 16ddd-X	.
=12	=12	=12	=12
8.g-XL	8.A-L] 8.d]	16ccnLL 16dddn	.
.	.	16cc-X 16ddd-X	.
.	.	16b-X 16ccc	.
8.fJ	8.D-XJ 8.Gn	16b-- 16ccc-X	.
.	.	16b-X 16cccn	.
.	.	16cc-XJJ 16ddd-X	.
=13	=13	=13	=13
16gnLL	8A-XL 8d	16r	.
16g-XJJ	.	16gg-XLL 16aaa-X	.
16rEE	16BB-XJk	16gg- 16aaa-	.
16rEE	16rc	16cc 16ddd	.
16g-LL	8A- 8d	16cc 16ddd	.
16fJJ	.	16cc-XJJ 16ddd-X	.
=14	=14	=14	=14
*	*^	*	*
8a-/	16e-XLL	16a-XLL	4.b-X 4.ccc	.
.	16f-XJJ	16B-X	.	.
16r	16r	16F-X	.	.
16r	16rEE	16GG-X	.	.
16r	16rEE	16DD-XJJ	.	.
16r	16rEE	16rc	.	.
*	*v	*v	*	*
=15	=15	=15	=15
16anLL	8B-XL 8e	16r	.
16a-XJJ	.	16aa-XLL 16bbb-X	.
16rEE	16CJk	16aa- 16bbb-	.
16rEE	16rc	16dd 16eee	.
16a-LL	[8B- [8e	16dd 16eee	.
16gJJ	.	16dd-XJJ 16eee-X	.
=16	=16	=16	=16
8.a-XL	8.B-L] 8.e]	16ddnLL 16eeen	.
.	.	16dd-X 16eee-X	.
.	.	16cc 16ddd	.
8.gJ	8.E-XJ 8.An	16cc-X 16ddd-X	.
.	.	16ccn 16dddn	.
.	.	16dd-JJ 16eee-	.
=17	=17	=17	=17
16anLL	8B-XL 8e	16r	.
16a-XJJ	.	16aa-XLL 16bbb-X	.
16rEE	16CJk	16aa- 16bbb-	.
16rEE	16rc	16dd 16eee	.
16a-LL	8B- 8e	16dd 16eee	.
16gJJ	.	16dd-XJJ 16eee-X	.
=18	=18	=18	=18
*	*^	*	*
8b-/	16fLL	16b-XLL	4.cc 4.ddd	.
.	16g-XJJ	16c	.	.
16r	16r	16G-X	.	.
16r	16rEE	16AA-X	.	.
16r	16rEE	16EE-XJJ	.	.
16r	16rEE	16rc	.	.
*	*v	*v	*	*
=19	=19	=19	=19
16fLL	8G-XL 8c	16r	.
16f-XJJ	.	16ff-XLL 16ggg-X	.
16rEE	16DDJk 16AA-X	16ff- 16ggg-	.
16rEE	16rc	16b-X 16ccc	.
16f-LL	8G- 8c	16b- 16ccc	.
16e-XJJ	.	16aJJ 16bb	.
=20	=20	=20	=20
*	*^	*	*
8f#/	16c#XLL	16f#XLL	4.g#X 4.aa#X	.
.	16dJJ	16G#X	.	.
16r	16r	16D	.	.
16r	16rEE	16EE	.	.
16r	16rEE	16BBBJJ	.	.
16r	16rEE	16rc	.	.
*	*v	*v	*	*
*v	*v	*	*
=21	=21	=21
*M12/16	*M12/16	*
[16qqBBB#X/LL	.	.
[16qqFF#X/JJ	.	.
*^	*	*
8d#XL	4.BBB#] 4.FF#] 4.E 4.A#X	16r	.
.	.	16gg#XLL 16aaa#X	.
16dnJk	.	16gg#J 16aaa#	.
8.g#X	.	8dd 8eee	.
.	.	16cc#XJk 16ddd#X	.
8d#XL	4.E 4.A#	16r	.
.	.	16g#XLL 16aa#X	.
16dnJk	.	16g#J 16aa#	.
8.rEE	.	8d 8ee	.
.	.	16dJk 16ee	.
*v	*v	*	*
=22	=22	=22
8.BB#XL 8.F#X 8.A#X	16dLL 16ee	.
.	16d#X 16ee#X	.
.	16e 16ff#X	.
8.D#XJ 8.An 8.c#X	16fn 16gg	.
.	16f#X 16gg#X	.
.	16gnJJ 16aa	.
8.CnL 8.F# 8.e	16a-XLL 16bb-X	.
.	16an 16bbn	.
.	16b-X 16ccc	.
8.AAnJ 8.E-X 8.d-X 8.g	16cc-X 16ddd-X	.
.	16ccn 16dddn	.
.	16dd-XJJ 16eee-X	.
=23	=23	=23
*M6/8	*M6/8	*
*^	*	*
32%3FFF#XL	2.ryy	32%3r	.
32%3FF#X	.	32%3ddnL 32%3eeen	.
32%3E	.	32%3g 32%3aa	.
32%3A#XJ	.	32%3g#XJ 32%3aa#X	.
8A#L	.	[4d [4ee	.
8E	.	.	.
8g#XJ	.	16dLL] 16ee]	.
.	.	16d#XJJ 16ee#X	.
=24	=24	=24	=24
8BB#XL	[4.d#X	[2.e [2.ff#X	.
8E	.	.	.
8A#XJ	.	.	.
8FF#XL	4d#_	.	.
8E	.	.	.
8A#J	16d#LL]	.	.
.	16d#JJ	.	.
=25	=25	=25	=25
32%3rEE	[4.d#X	4e] 4ff#]	.
32%3BBBB#XL 32%3BBB#X	.	.	.
32%3AA#X	.	.	.
.	.	8e 8ff#X	.
32%3EJ	.	.	.
8G#X	8d#]	[4.a#X [4.bb#X	.
8rEE	[4d#	.	.
8rEE	.	.	.
*v	*v	*	*
=26	=26	=26
8d#]	2.a#] 2.bb#]	.
[4d#X	.	.
4d#]	.	.
8d#	.	.
=27	=27	=27
*^	*	*
32%3rEE	[4.g#X	4r	.
32%3FF#XL	.	.	.
32%3E	.	.	.
.	.	8a#X 8bb#X	.
32%3A#XJ	.	.	.
8A#L	4g#]	[4.d [4.ee	.
8E	.	.	.
8g#J	[8g#	.	.
=28	=28	=28	=28
8FF#XL	4.g#]	4d] 4ee]	.
8E	.	.	.
8A#XJ	.	4d#X 4ee#X	.
8A#L	8A#L	.	.
8E	8d#X	4e 4ff#X	.
8dnJ	8dnJ	.	.
=29	=29	=29	=29
32%3rEE	16%3.c#X	2.fn 2.gg	.
32%3AAL	.	.	.
32%3G	.	.	.
32%3c#J	32%3c#	.	.
8c#L	[4.c#	.	.
8G	.	.	.
8bJ	.	.	.
=30	=30	=30	=30
8EE-XL	4.d-X_	4cc-X 4ddd-X	.
8AA	.	.	.
8GJ	.	4ccn 4dddn	.
8gL	8d-L]	.	.
8d-	8c	4dd-X 4eee-X	.
8gJ	8c-XJ	.	.
=31	=31	=31	=31
32%3rEE	4A#X	32%3r	.
32%3FF#XL	.	32%3ddnL 32%3eeen	.
32%3E	.	32%3g 32%3aa	.
.	8rc	.	.
32%3A#J	.	32%3g#XJ 32%3aa#X	.
8A#L	4.rc	[4d [4ee	.
8E	.	.	.
8g#XJ	.	16dLL] 16ee]	.
.	.	16d#XJJ 16ee#X	.
=32	=32	=32	=32
8BB#XL	[4.d#X	[2.e [2.ff#X	.
8E	.	.	.
8A#XJ	.	.	.
8FF#XL	4d#_	.	.
8E	.	.	.
8A#J	16d#LL]	.	.
.	16d#JJ	.	.
=33	=33	=33	=33
32%3rEE	[4.d#X	4e] 4ff#]	.
32%3BBBB#XL 32%3BBB#X	.	.	.
32%3AA#X	.	.	.
.	.	8e 8ff#X	.
32%3EJ	.	.	.
8G#X	8d#]	[4.a#X [4.bb#X	.
8rEE	[4d#	.	.
8rEE	.	.	.
*v	*v	*	*
=34	=34	=34
8d#]	2.a#] 2.bb#]	.
[4d#X	.	.
4d#]	.	.
8dn	.	.
=35	=35	=35
*M6/16	*M6/16	*
8.BB#XL 8.F#X 8.A#X	16dLL 16ee	.
.	16d#X 16ee#X	.
.	16e 16ff#X	.
8.D#XJ 8.An 8.c#X	16fn 16gg	.
.	16f#X 16gg#X	.
.	16gnJJ 16aa	.
=36	=36	=36
8.CL 8.F#X 8.e	16a-XLL 16bb-X	.
.	16an 16bbn	.
.	16b-X 16ccc	.
8.AAJ 8.E-X 8.d-X 8.g	16cc-X 16ddd-X	.
.	16ccn 16dddn	.
.	16dd-XJJ 16eee-X	.
=37	=37	=37
*^	*	*
64%3d#XLL	32%3A#XL 32%3g#X	16r	.
64%3dnJJ	.	.	.
.	.	16ddnLL 16eeen	.
32%3rEE	64%3EL	.	.
.	.	16dd 16eee	.
.	64%3FF#XJJ	.	.
8rEE	8rc	16g#X 16aa#X	.
.	.	16gn 16aan	.
16rEE	16rc	16f#XJJ 16gg#X	.
*v	*v	*	*
=38	=38	=38
4.AAn 4.E-X 4.d-X	4.fn 4.ggn	.
=39	=39	=39
8.AL 8.c#X	16fLL 16gg	.
.	16f#X 16gg#X	.
.	16gn 16aa	.
8.F#XJ 8.cn 8.e	16a-X 16bb-X	.
.	16an 16bbn	.
.	16b-XJJ 16ccc	.
=40	=40	=40
8.E-XL 8.A 8.g	16cc-XLL 16ddd-X	.
.	16ccn 16dddn	.
.	16dd-X 16eee-X	.
8.CJ 8.G-X 8.f-X 8.b-X	16ee-- 16fff-X	.
.	16ee-X 16fffn	.
.	16ff-XJJ 16ggg-X	.
=41	=41	=41
*^	*	*
64%3f#XLL	32%3c#XL 32%3b	16r	.
64%3fnJJ	.	.	.
.	.	16ffnLL 16gggn	.
32%3rEE	64%3GnL	.	.
.	.	16ff 16ggg	.
.	64%3AAJJ	.	.
8rEE	8rc	16b 16ccc#X	.
.	.	16b-X 16cccn	.
16rEE	16rc	16aJJ 16bb	.
*v	*v	*	*
=42	=42	=42
4.BB#X 4.F#X 4.e	4.g#X 4.aa#X	.
=43	=43	=43
*^	*	*
16aLL	8B-XL 8e	16r	.
16a-XJJ	.	16aa-XLL 16bbb-X	.
16rEE	16CJk	16aa- 16bbb-	.
16rEE	16rc	16dd 16eee	.
16a-LL	8B- 8e	16dd 16eee	.
16gJJ	.	16dd-XJJ 16eee-X	.
*v	*v	*	*
=44	=44	=44
4.E-X 4.A-X 4.g-X 4.b-X	4.cc 4.ddd	.
=45	=45	=45
*M12/16	*M12/16	*
*^	*	*
16fLL	8G-XL 8c	16r	.
16f-XJJ	.	16bb-XLL 16cccc	.
16rEE	16AA-XJk	16bb-J 16cccc	.
8.b-X	8rc	8ff-X 8ggg-X	.
.	16rc	16ee-XJk 16fff	.
32%3bnLL	8.c 8.f#X	16r	.
.	.	16eenLL 16fff#X	.
32%3b-XJJ	.	.	.
.	.	16eeJ 16fff#	.
8rEE	8rc	8b-X 8ccc	.
16rEE	16rc	16b-Jk 16ccc	.
*v	*v	*	*
=46	=46	=46
8.FFL 8.AA#X	16b-XLL 16ccc	.
.	16bn 16ccc#X	.
.	16ccn 16ddd	.
8.DDJ 8.AAn 8.C	16dd-X 16eee-X	.
.	16ddn 16eeen	.
.	16ee-XJJ 16fff	.
8.CC-XL 8.FF 8.E	16ff-XLL 16ggg-X	.
.	16ffn 16gggn	.
.	16gg-X 16aaa-X	.
8.GGG#XJ 8.DD 8.C 8.F#X	16ggn 16aaan	.
.	16gg#X 16aaa#X	.
.	16aanJJ 16bbb	.
=47	=47	=47
*M6/8	*M6/8	*
*^	*	*
32%3DDnL	2.ryy	32%3r	.
32%3D	.	32%3bb-XL 32%3cccc	.
32%3c	.	32%3ee-X 32%3fff	.
32%3f#XJ	.	32%3eenJ 32%3fff#X	.
8f#L	.	[4b-X [4ccc	.
8c	.	.	.
8eeJ	.	16b-LL] 16ccc]	.
.	.	16bnJJ 16ccc#X	.
=48	=48	=48	=48
8G#XL	[4.b	[2.cc [2.ddd	.
8c	.	.	.
8f#XJ	.	.	.
8DL	4b_	.	.
8c	.	.	.
8f#J	16bLL]	.	.
.	16bJJ	.	.
=49	=49	=49	=49
32%3rEE	[4.b	4cc] 4ddd]	.
32%3GGG#XL 32%3GG#X	.	.	.
32%3F#X	.	.	.
.	.	8cc 8ddd	.
32%3cJ	.	.	.
8e	8b]	[4.ff#X [4.ggg#X	.
8rEE	[4b	.	.
8rEE	.	.	.
*v	*v	*	*
=50	=50	=50
8b]	2.ff#] 2.ggg#]	.
[4b	.	.
4b]	.	.
*clefG2	*	*
8b	.	.
=51	=51	=51
*^	*	*
32%3rc	[4.ee	4r	.
32%3DL	.	.	.
32%3c	.	.	.
.	.	8ff#X 8ggg#X	.
32%3f#XJ	.	.	.
8f#L	4ee]	[4.b-X [4.ccc	.
8c	.	.	.
8eeJ	[8ee	.	.
=52	=52	=52	=52
8DL	4.ee]	4b-] 4ccc]	.
8c	.	.	.
8f#XJ	.	4bn 4ccc#X	.
8f#L	8f#L	.	.
8c	8b	4ccn 4ddd	.
8b-J	8b-XJ	.	.
=53	=53	=53	=53
32%3rc	16%3.a	2.dd-X 2.eee-X	.
32%3FnL	.	.	.
32%3e-X	.	.	.
32%3aJ	32%3a	.	.
8aL	[4.a	.	.
8e-	.	.	.
8ggJ	.	.	.
=54	=54	=54	=54
8BBL	4.a_	4gg 4aaa	.
8E#X	.	.	.
8d#XJ	.	4gg#X 4aaa#X	.
8dd#XL	8aL]	.	.
8a	8g#X	4aan 4bbb	.
8dd#J	8gnJ	.	.
*clefF4	*	*	*
=55	=55	=55	=55
32%3rEE	4f#X	32%3r	.
32%3DL	.	32%3bb-XL 32%3cccc	.
32%3c	.	32%3ee-X 32%3fff	.
.	8rc	.	.
32%3f#J	.	32%3eenJ 32%3fff#X	.
8f#L	4.rc	[4b-X [4ccc	.
8c	.	.	.
8eeJ	.	16b-LL] 16ccc]	.
.	.	16bnJJ 16ccc#X	.
=56	=56	=56	=56
8G#XL	4.b	[2.cc [2.ddd	.
8c	.	.	.
8f#XJ	.	.	.
8f#L	[4f#	.	.
8c	.	.	.
8bJ	16f#LL]	.	.
.	16f#JJ	.	.
=57	=57	=57	=57
32%3rEE	4.f#X	4cc] 4ddd]	.
32%3EL	.	.	.
32%3d	.	.	.
.	.	8cc 8ddd	.
32%3g#XJ	.	.	.
.	[8qg-X/	.	.
32%3rEE	4.g-] [4.cc	[4.gg-X [4.aaa-X	.
32%3BBB-XL 32%3BB-X	.	.	.
32%3A-X	.	.	.
32%3dJ	.	.	.
=58	=58	=58	=58
8g-X	8cc]	2.gg-] 2.aaa-]	.
8rEE	[4cc	.	.
8rEE	.	.	.
4rEE	4cc]	.	.
8rEE	8cc	.	.
=59	=59	=59	=59
32%3rEE	4.cc	16r	.
.	.	16cccLL 16dddd	.
32%3EL	.	.	.
.	.	16ff 16ggg	.
32%3d	.	16ff#X 16ggg#X	.
.	.	16cc 16ddd	.
32%3g#XJ	.	.	.
.	.	16cc#XJJ 16ddd#X	.
40%3rEE	4.cc#X	4.ddn 4.eee	.
40%3AA#XL	.	.	.
40%3G#X	.	.	.
40%3d	.	.	.
40%3g#J	.	.	.
*v	*v	*	*
=60	=60	=60
4.E 4.d 4.g#X 4.ccn	16r	.
.	16cccLL 16dddd	.
.	16ff 16ggg	.
.	16ff#X 16ggg#X	.
.	16cc 16ddd	.
.	16cc#XJJ 16ddd#X	.
4.AA#X 4.G#X 4.d 4.g# 4.cc	4.ddn 4.eee	.
=61	=61	=61
*M2/8	*M2/8	*
8EL 8d 8g#X	16r	.
.	16ff 16ggg	.
8AA#XJ 8G#X 8d	16ff#XLL 16ggg#X	.
.	16ccJJ 16ddd	.
=62	=62	=62
8EL 8d 8g#X	16r	.
.	16ffn 16gggn	.
8AA#XJ 8G#X 8d	16ff#XLL 16ggg#X	.
.	16ccJJ 16ddd	.
=63	=63	=63
8GL 8f 8b	16r	.
.	16aa-X 16bbb-X	.
8C#XJ 8B 8f	16aanLL 16bbbn	.
.	16ee-XJJ 16fff	.
*clefG2	*	*
=64	=64	=64
8B-XL 8a-X 8dd	16r	.
.	16ccc-X 16dddd-X	.
8EJ 8d 8a-	16cccnLL 16ddddn	.
.	16gg-XJJ 16aaa-X	.
*clefF4	*	*
=65	=65	=65
*M12/16	*M12/16	*
8.EL 8.B-X 8.d	16g-XLL 16aa-X	.
.	16gn 16aan	.
.	16a-X 16bb-X	.
8.C#XJ 8.F##X 8.e#X	16an 16bbn	.
.	16a#X 16bb#X	.
.	16bnJJ 16ccc#X	.
8.AA#X 8.E 8.d 8.g#X	16ccnLL 16ddd	.
.	16cc#X 16ddd#X	.
.	16ddn 16eee	.
16.BnLL 16.fn 16.bn	16ee-X 16fff	.
.	16een 16fff#X	.
16.GGnJJ 16.C#X	.	.
.	16ffnJJ 16ggg	.
=66	=66	=66
64%3EELL	16gg-XLL 16aaa-X	.
64%3BB-X	.	.
.	16gg- 16aaa-	.
64%3A-X	.	.
.	16gg- 16aaa-	.
64%3dJ	.	.
[8.ccnJ	16gg- 16aaa-	.
.	16gg- 16aaa-	.
.	16gg-JJ 16aaa-	.
8.ccL]	16gg-LL 16aaa-	.
.	16gg- 16aaa-	.
.	16gg- 16aaa-	.
8.ccJ	16gg- 16aaa-	.
.	16gg- 16aaa-	.
.	16gg-JJ 16aaa-	.
=67	=67	=67
*M6/16	*M6/16	*
*^	*	*
16gLL	8A-XL 8d	16r	.
16g-XJJ	.	16gg-XLL 16aaa-X	.
16rEE	16BB-XJk	16gg- 16aaa-	.
16rEE	16rc	16cc 16ddd	.
16g-LL	[8A- [8d	16cc 16ddd	.
16fJJ	.	16cc-XJJ 16ddd-X	.
=68	=68	=68	=68
8.g-XL	8.A-L] 8.d]	16ccnLL 16dddn	.
.	.	16cc-X 16ddd-X	.
.	.	16b-X 16cccn	.
8.fJ	8.D-XJ 8.Gn	16b-- 16ccc-X	.
.	.	16b-X 16cccn	.
.	.	16cc-XJJ 16ddd-X	.
=69	=69	=69	=69
16gnLL	8A-XL 8d	16r	.
16g-XJJ	.	16gg-XLL 16aaa-X	.
16rEE	16BB-XJk	16gg- 16aaa-	.
16rEE	16rc	16cc 16ddd	.
16g-LL	[8A- [8d	16cc 16ddd	.
16fJJ	.	16cc-XJJ 16ddd-X	.
=70	=70	=70	=70
8.g-XL	8.A-L] 8.d]	16ccnLL 16dddn	.
.	.	16cc-X 16ddd-X	.
.	.	16b-XJ 16cccn	.
8.fJ	8.C#XJ 8.Bn	8.aJ 8.bbn	.
=71	=71	=71	=71
16eLL	8FL 8B	16r	.
16e-XJJ	.	16ee-XLL 16fff	.
16rEE	16GGJk	16ee- 16fff	.
16rEE	16rc	16a 16bb	.
16e-LL	[8F [8B	16a 16bb	.
16dJJ	.	16a-XJJ 16bb-X	.
=72	=72	=72	=72
8.e-XL	8.FL] 8.B]	16anLL 16bbn	.
.	.	16a-X 16bb-X	.
.	.	16gJ 16aan	.
8.dJ	8.BB-XJ 8.En	8.g-XJ 8.aa-X	.
*v	*v	*	*
=73	=73	=73
8.BB-XL 8.E 8.d	16g-XLL 16aa-X	.
.	16gn 16aan	.
.	16a-X 16bb-X	.
8.GGJ 8.D-X 8.c-X 8.f	16b-- 16ccc-X	.
.	16b-X 16cccn	.
.	16cc-XJJ 16ddd-X	.
=74	=74	=74
16.GLL 16.A-X 16.d 16.g	16ccnLL 16dddn	.
.	16cc 16ddd	.
16.EEJJ 16.D	.	.
.	16cc 16ddd	.
8.r	16cc 16ddd	.
.	16cc 16ddd	.
.	16ccJJ 16ddd	.
=75	=75	=75
*^	*	*
16gLL	8A-XL 8d	16r	.
16g-XJJ	.	16gg-XLL 16aaa-X	.
16rEE	16BB-XJk	16gg- 16aaa-	.
16rEE	16rc	16cc 16ddd	.
16g-LL	[8A- [8d	16cc 16ddd	.
16fJJ	.	16cc-XJJ 16ddd-X	.
=76	=76	=76	=76
8.g-XL	8.A-L] 8.d]	16ccnLL 16dddn	.
.	.	16cc-X 16ddd-X	.
.	.	16b-X 16cccn	.
8.fJ	8.D-XJ 8.Gn	16b-- 16ccc-X	.
.	.	16b-X 16cccn	.
.	.	16cc-XJJ 16ddd-X	.
=77	=77	=77	=77
16gnLL	8A-XL 8d	16r	.
16g-XJJ	.	16gg-XLL 16aaa-X	.
16rEE	16BB-XJk	16gg- 16aaa-	.
16rEE	16rc	16cc 16ddd	.
16g-LL	8A- 8d	16cc 16ddd	.
16fJJ	.	16cc-XJJ 16ddd-X	.
=78	=78	=78	=78
*	*^	*	*
8a-/	16e-XLL	16a-XLL	4.b-X 4.cccn	.
.	16f-XJJ	16B-X	.	.
16r	16rEE	16F-X	.	.
8.r	8.rEE	16GG-X	.	.
.	.	16DD-XJJ	.	.
.	.	16rc	.	.
*	*v	*v	*	*
=79	=79	=79	=79
16anLL	8B-XL 8e	16r	.
16a-XJJ	.	16aa-XLL 16bbb-X	.
16rEE	16CJk	16aa- 16bbb-	.
16rEE	16rc	16dd 16eee	.
16a-LL	[8B- [8e	16dd 16eee	.
16gJJ	.	16dd-XJJ 16eee-X	.
=80	=80	=80	=80
8.a-XL	8.B-L] 8.e]	16ddnLL 16eeen	.
.	.	16dd-X 16eee-X	.
.	.	16cc 16dddn	.
8.gJ	8.E-XJ 8.An	16cc-X 16ddd-X	.
.	.	16ccn 16dddn	.
.	.	16dd-XJJ 16eee-X	.
=81	=81	=81	=81
16anLL	8B-XL 8e	16r	.
16a-XJJ	.	16aa-XLL 16bbb-X	.
16rEE	16CJk	16aa- 16bbb-	.
16rEE	16rc	16dd 16eee	.
16a-LL	8B- 8e	16dd 16eee	.
16gJJ	.	16dd-XJJ 16eee-X	.
=82	=82	=82	=82
*	*^	*	*
8b-/	16fLL	16b-XLL	4.cc 4.dddn	.
.	16g-XJJ	16c	.	.
16r	16rEE	16G-X	.	.
8.r	8.rEE	16AA-X	.	.
.	.	16EE-XJJ	.	.
.	.	16rc	.	.
*	*v	*v	*	*
=83	=83	=83	=83
16bLL	8cL 8f#X	16r	.
16b-XJJ	.	16bb-XLL 16cccc	.
16rEE	16DJk	16bb- 16cccc	.
16rEE	16rc	16ee 16fff#X	.
16b-LL	8c 8f#	16ee 16fff#	.
16aJJ	.	16ee-XJJ 16fffn	.
=84	=84	=84	=84
*	*^	*	*
8cc/	16gLL	16ccLL	4.dd 4.eeen	.
.	16a-XJJ	16d	.	.
16r	16rEE	16A-X	.	.
8.r	8rEE	16BB-X	.	.
.	.	16FFJJ	.	.
.	16rEE	16rc	.	.
*	*v	*v	*	*
*v	*v	*	*
=85	=85	=85
*M12/16	*M12/16	*
[16qqEE/LL	.	.
[16qqBB-X/JJ	.	.
*^	*	*
8gL	4.EE] 4.BB-] 4.A-X 4.d	16r	.
.	.	16cccLL 16dddd	.
16g-XJk	.	16cccJ 16dddd	.
8.cc	.	8gg-X 8aaa-X	.
.	.	16ffJk 16ggg	.
8gnL	4.A- 4.d	16r	.
.	.	16ccLL 16ddd	.
16g-XJk	.	16ccJ 16ddd	.
8.rEE	.	8g-X 8aa-X	.
.	.	16g-Jk 16aa-	.
=86	=86	=86	=86
8.EL 8.B-X 8.d	2.ryy	16g-XLL 16aa-X	.
.	.	16gn 16aan	.
.	.	16a-X 16bb-X	.
8.F##XJ 8.c#X 8.e#X	.	16an 16bbn	.
.	.	16a#X 16bb#X	.
.	.	16bnJJ 16ccc#X	.
8.EL 8.A#X 8.g#X	.	16ccnLL 16ddd	.
.	.	16cc#X 16ddd#X	.
.	.	16ddn 16eee	.
8.C#XJ 8.G 8.f 8.b	.	16ee-X 16fff	.
.	.	16een 16fff#X	.
.	.	16ffnJJ 16ggg	.
*v	*v	*	*
=87	=87	=87
*M6/8	*M6/8	*
*^	*	*
32%3BBB-XL	2.ryy	32%3r	.
32%3BB-X	.	32%3gg-XL 32%3aaa-X	.
32%3A-X	.	32%3cc-X 32%3ddd-X	.
32%3dJ	.	32%3ccnJ 32%3dddn	.
8dL	.	[4g-X [4aa-X	.
8A-	.	.	.
8ccJ	.	16g-LL] 16aa-]	.
.	.	16gnJJ 16aan	.
=88	=88	=88	=88
8EL	[4.g	[2.a-X [2.bb-X	.
8A-X	.	.	.
8dJ	.	.	.
8BB-XL	4g_	.	.
8A-	.	.	.
8dJ	16gLL]	.	.
.	16gJJ	.	.
=89	=89	=89	=89
32%3rEE	[4.g	4a-] 4bb-]	.
32%3EEEL 32%3EE	.	.	.
32%3D	.	.	.
.	.	8a-X 8bb-X	.
32%3A-XJ	.	.	.
8c	8g]	[4.dd [4.eee	.
8rEE	[4g	.	.
8rEE	.	.	.
*v	*v	*	*
=90	=90	=90
8g]	2.dd] 2.eee]	.
[4g	.	.
4g]	.	.
8g	.	.
=91	=91	=91
*^	*	*
32%3rEE	[4.cc	4r	.
32%3BB-XL	.	.	.
32%3A-X	.	.	.
.	.	8dd 8eee	.
32%3dJ	.	.	.
8dL	4cc]	[4.g-X [4.aa-X	.
8A-	.	.	.
8ccJ	[8cc	.	.
=92	=92	=92	=92
8BB-XL	4.cc]	4g-] 4aa-]	.
8A-X	.	.	.
8dJ	.	4gn 4aan	.
8dL	8dL	.	.
8A-	8g	4a-X 4bb-X	.
8g-J	8g-XJ	.	.
=93	=93	=93	=93
32%3rEE	16%3.f	2.b-- 2.ccc-X	.
32%3D-XL	.	.	.
32%3c-X	.	.	.
32%3fJ	32%3f	.	.
8fL	[4.f	.	.
8c-	.	.	.
8ee-XJ	.	.	.
=94	=94	=94	=94
8GGL	4.f_	4ee-X 4fff	.
8C#X	.	.	.
8BJ	.	4een 4fff#X	.
8bL	8fL]	.	.
8f	8e	4ffn 4ggg	.
8bJ	8e-XJ	.	.
=95	=95	=95	=95
32%3rEE	4d	32%3r	.
32%3BB-XL	.	32%3gg-XL 32%3aaa-X	.
32%3A-X	.	32%3cc-X 32%3ddd-X	.
.	8rc	.	.
32%3dJ	.	32%3ccnJ 32%3dddn	.
8dL	4.rc	[4g-X [4aa-X	.
8A-	.	.	.
8ccJ	.	16g-LL] 16aa-]	.
.	.	16gnJJ 16aan	.
=96	=96	=96	=96
8EL	[4.g	[2.a-X [2.bb-X	.
8A-X	.	.	.
8dJ	.	.	.
8BB-XL	4g_	.	.
8A-	.	.	.
8dJ	16gLL]	.	.
.	16gJJ	.	.
=97	=97	=97	=97
32%3rEE	[4.g	4a-] 4bb-]	.
32%3EEEL 32%3EE	.	.	.
32%3D	.	.	.
.	.	8a-X 8bb-X	.
32%3A-XJ	.	.	.
8c	8g]	[4.dd [4.eee	.
8rEE	[4g	.	.
8rEE	.	.	.
*v	*v	*	*
=98	=98	=98
8g]	2.dd] 2.eee]	.
[4g	.	.
4g]	.	.
8g-X	.	.
=99	=99	=99
*M6/16	*M6/16	*
8.EL 8.B-X 8.d	16g-XLL 16aa-X	.
.	16gn 16aan	.
.	16a-X 16bb-X	.
8.F##XJ 8.c#X 8.e#X	16an 16bbn	.
.	16a#X 16bb#X	.
.	16bnJJ 16ccc#X	.
=100	=100	=100
8.E-L 8.A#X 8.g#X	16ccnLL 16ddd	.
.	16cc#X 16ddd#X	.
.	16ddn 16eee	.
8.C#XJ 8.G 8.f 8.b	16ee-X 16fff	.
.	16een 16fff#X	.
.	16ffnJJ 16ggg	.
=101	=101	=101
*^	*	*
64%3gLL	32%3dL 32%3cc	16r	.
64%3g-XJJ	.	.	.
.	.	16gg-XLL 16aaa-X	.
32%3rEE	64%3A-XL	.	.
.	.	16gg- 16aaa-	.
.	64%3BB-XJJ	.	.
8rEE	8rc	16cc 16ddd	.
.	.	16cc-X 16ddd-X	.
16rEE	16rc	16b-XJJ 16ccc	.
*v	*v	*	*
=102	=102	=102
4.D-X 4.G 4.f	4.b-- 4.ccc-X	.
=103	=103	=103
8.EL 8.B-X 8.d	16g-XLL 16aa-X	.
.	16gn 16aan	.
.	16a-X 16bb-X	.
8.F##XJ 8.c#X 8.e#X	16an 16bbn	.
.	16a#X 16bb#X	.
.	16bnJJ 16ccc#X	.
=104	=104	=104
8.E-L 8.A#X 8.g#X	16ccnLL 16ddd	.
.	16cc#X 16ddd#X	.
.	16ddn 16eee	.
8.C#XJ 8.G 8.f 8.b	16ee-X 16fff	.
.	16een 16fff#X	.
.	16ffnJJ 16ggg	.
=105	=105	=105
*^	*	*
64%3gLL	32%3dL 32%3cc	16r	.
64%3g-XJJ	.	.	.
.	.	16gg-XLL 16aaa-X	.
32%3rEE	64%3A-XL	.	.
.	.	16gg- 16aaa-	.
.	64%3BB-XJJ	.	.
8rEE	8rc	16cc 16ddd	.
.	.	16cc-X 16ddd-X	.
16rEE	16rc	16b-XJJ 16ccc	.
*v	*v	*	*
=106	=106	=106
4.D-X 4.G 4.f	4.b-- 4.ccc-X	.
=107	=107	=107
4.D-X 4.G 4.f	4.b-- 4.ccc-X	.
=108	=108	=108
4.D-X 4.G 4.f	4.b-- 4.ccc-X	.
=109	=109	=109
*M6/8	*M6/8	*
8D-XL	32%3r	.
.	32%3bb--L 32%3cccc-X	.
8c-X	.	.
.	32%3ee-- 32%3fff-X	.
8fJ	.	.
.	32%3ee-XJ 32%3fffn	.
8fL	[4.b-- [4.ccc-X	.
8c-	.	.
8ee-XJ	.	.
=110	=110	=110
*^	*	*
4.rEE	8D-XL	4b--] 4ccc-]	.
.	8c-X	.	.
.	8fJ	4b-X 4cccn	.
8fL	8fL	.	.
8b-X	8c-	4cc-X 4ddd-X	.
8b--J	8b--J	.	.
=111	=111	=111	=111
[2.a-X	32%3rc	[2.ccn [2.dddn	.
.	32%3BB-XL	.	.
.	32%3A-X	.	.
.	32%3dJ	.	.
.	[4.g	.	.
=112	=112	=112	=112
2.a-_	4.g]	2.cc_ 2.ddd_	.
.	[4.g-X	.	.
=113	=113	=113	=113
8a-]	8g-]	8cc] 8ddd]	.
8rEE	8rc	8r	.
8rEE	8rc	8r	.
4rEE	4rc	4r	.
8rEE	8rc	8r	.
*v	*v	*	*
==	==	==
*-	*-	*-
!!!system-decoration: {(*)}
!!!ENC: Bryan Jacob Bell
!!!END: November 2021 to April 2022
!!!PED: Lev Oborin and Yakov Milstein
!!!PTL: A.N. Skryabin: Polnoe sobranie sochinenii dlia fortepiano (Muzgiz)
